outputs/icons/communication/dollar_round.svg

<svg xmlns="http://www.w3.org/2000/svg" width="1200" height="1200" fill="none"><path fill="#000" fill-rule="evenodd" d="M562.425 101.236c-68.251 4.767-124.162 20.191-185.282 51.113-62.115 31.425-114.693 72.47-155.919 121.716-64.867 77.486-102.174 159.782-115.733 255.3-5.614 39.545-6.775 67.575-4.16 100.445 7.348 92.36 36.57 178.35 85.513 251.63 30.721 46 85.077 100.21 133.137 132.78 51.597 34.965 102.591 57.365 168.315 73.925 42.949 10.825 62.944 12.685 124.449 11.575 49.33-.89 57.7-1.54 78.37-6.07 72.11-15.805 132.875-40.865 186.455-76.895 109.565-73.68 182.89-181.42 212.68-312.5 8.815-38.765 10.635-61.135 9.405-115.58-1.225-54.41-4.73-79.985-16.54-120.777-26.105-90.148-64.865-157.422-126.245-219.111-66.58-66.912-150.475-114.157-242.765-136.704-41.565-10.156-100.865-14.397-151.68-10.847m98.345 102.688c36.845 4.429 89.925 21.839 126.545 41.504 90.06 48.367 159.025 129.786 191.33 225.874 42.145 125.353 20.1 262.588-59.47 370.198-15.225 20.58-49.455 56.025-70.685 73.185-72.75 58.795-183.22 93.265-273.47 85.33-148.2-13.035-266.478-92.17-331.412-221.735-39.459-78.74-51.648-173.05-33.799-261.525 10.752-53.298 37.34-112.05 71.359-157.679 14.019-18.803 46.724-53.038 64.822-67.853 61.159-50.066 147.312-85.427 217.685-89.349 29.36-1.636 74.335-.687 97.095 2.05m-76.52 48.756c-4.125 1.543-9.82 4.33-12.66 6.194-6.47 4.248-15.855 18.924-19.89 31.09l-3.075 9.285-17.485 5.951c-49.063 16.695-81.939 41.985-105.624 81.254-15.015 24.895-21.68 46.668-22.823 74.563-1.825 44.548 5.531 74.528 25.992 105.958 25.378 38.98 65.844 67.715 111.425 79.12l10.53 2.635v152.015l-26.575.065c-14.62.035-40.951.905-58.518 1.94-29.807 1.75-32.54 2.25-40.922 7.475-4.941 3.08-11.701 8.98-15.023 13.11-5.307 6.6-6.154 9.455-6.963 23.475-1.146 19.835 3.2 30.28 17.626 42.385 11.32 9.5 9.165 9.16 81.235 12.77l46.13 2.31 6.14 11.59c16.205 30.58 42.4 42.235 66.84 29.735 9.735-4.975 23.46-20.05 27.525-30.23 4.12-10.315 11.92-16.86 25.29-21.215 5.825-1.9 18.45-7.475 28.045-12.4 43.375-22.23 72.625-54.635 89.93-99.61l6.215-16.155-1.33-86.86-8.07-18.095c-23.92-53.66-64.745-89.295-120.935-105.57l-16.355-4.735V399.278l54.655-1.162c30.295-.644 57.98-2.151 62.115-3.382 9.175-2.73 17.07-9.22 24.775-20.364 5.4-7.81 5.875-9.913 5.875-26.059 0-16.435-.4-18.114-6.19-26.13-3.405-4.712-9.785-11.174-14.17-14.36-7.98-5.792-7.985-5.794-51.975-7.691-24.2-1.045-50.415-2.427-58.265-3.072l-14.265-1.172-4.79-10.396c-6.045-13.13-16.255-24.612-26.565-29.885-10.235-5.232-28.03-6.607-37.875-2.925m-33.61 221.532v71.493l-8.295-4.65c-10.115-5.675-25.385-22.47-32.735-36.005-5.16-9.503-5.41-11.199-4.76-32.557.815-26.979 3.365-33.412 19.8-49.998 9.045-9.128 22.71-19.726 25.485-19.767.28-.004.505 32.164.505 71.484M675.95 673.13c18.365 18.135 21.01 24.7 21.045 52.235.02 20.705-.345 22.75-5.745 32.195-7.885 13.77-22.07 29.17-32.045 34.775l-8.28 4.65v-143.09l5.845 3.03c3.215 1.665 11.845 8.96 19.18 16.205"/></svg>

<svg width="1200" height="1200" viewBox="0 0 1200 1200" fill="none" xmlns="http://www.w3.org/2000/svg"><path fill-rule="evenodd" d="M562.425 101.236C494.174 106.003 438.263 121.427 377.143 152.349C315.028 183.774 262.45 224.819 221.224 274.065C156.357 351.551 119.05 433.847 105.491 529.365C99.877 568.91 98.716 596.94 101.331 629.81C108.679 722.17 137.901 808.16 186.844 881.44C217.565 927.44 271.921 981.65 319.981 1014.22C371.578 1049.185 422.572 1071.585 488.296 1088.145C531.245 1098.97 551.24 1100.83 612.745 1099.72C662.075 1098.83 670.445 1098.18 691.115 1093.65C763.225 1077.845 823.99 1052.785 877.57 1016.755C987.135 943.075 1060.46 835.335 1090.25 704.255C1099.065 665.49 1100.885 643.12 1099.655 588.675C1098.43 534.265 1094.925 508.69 1083.115 467.898C1057.01 377.75 1018.25 310.476 956.87 248.787C890.29 181.875 806.395 134.63 714.105 112.083C672.54 101.927 613.24 97.686 562.425 101.236ZM660.77 203.924C697.615 208.353 750.695 225.763 787.315 245.428C877.375 293.795 946.34 375.214 978.645 471.302C1020.79 596.655 998.745 733.89 919.175 841.5C903.95 862.08 869.72 897.525 848.49 914.685C775.74 973.48 665.27 1007.95 575.02 1000.015C426.82 986.98 308.542 907.845 243.608 778.28C204.149 699.54 191.96 605.23 209.809 516.755C220.561 463.457 247.149 404.705 281.168 359.076C295.187 340.273 327.892 306.038 345.99 291.223C407.149 241.157 493.302 205.796 563.675 201.874C593.035 200.238 638.01 201.187 660.77 203.924ZM584.25 252.68C580.125 254.223 574.43 257.01 571.59 258.874C565.12 263.122 555.735 277.798 551.7 289.964L548.625 299.249L531.14 305.2C482.077 321.895 449.201 347.185 425.516 386.454C410.501 411.349 403.836 433.122 402.693 461.017C400.868 505.565 408.224 535.545 428.685 566.975C454.063 605.955 494.529 634.69 540.11 646.095L550.64 648.73V800.745L524.065 800.81C509.445 800.845 483.114 801.715 465.547 802.75C435.74 804.5 433.007 805 424.625 810.225C419.684 813.305 412.924 819.205 409.602 823.335C404.295 829.935 403.448 832.79 402.639 846.81C401.493 866.645 405.839 877.09 420.265 889.195C431.585 898.695 429.43 898.355 501.5 901.965L547.63 904.275L553.77 915.865C569.975 946.445 596.17 958.1 620.61 945.6C630.345 940.625 644.07 925.55 648.135 915.37C652.255 905.055 660.055 898.51 673.425 894.155C679.25 892.255 691.875 886.68 701.47 881.755C744.845 859.525 774.095 827.12 791.4 782.145L797.615 765.99L796.285 679.13L788.215 661.035C764.295 607.375 723.47 571.74 667.28 555.465L650.925 550.73V399.278L705.58 398.116C735.875 397.472 763.56 395.965 767.695 394.734C776.87 392.004 784.765 385.514 792.47 374.37C797.87 366.56 798.345 364.457 798.345 348.311C798.345 331.876 797.945 330.197 792.155 322.181C788.75 317.469 782.37 311.007 777.985 307.821C770.005 302.029 770 302.027 726.01 300.13C701.81 299.085 675.595 297.703 667.745 297.058L653.48 295.886L648.69 285.49C642.645 272.36 632.435 260.878 622.125 255.605C611.89 250.373 594.095 248.998 584.25 252.68ZM550.64 474.212V545.705L542.345 541.055C532.23 535.38 516.96 518.585 509.61 505.05C504.45 495.547 504.2 493.851 504.85 472.493C505.665 445.514 508.215 439.081 524.65 422.495C533.695 413.367 547.36 402.769 550.135 402.728C550.415 402.724 550.64 434.892 550.64 474.212ZM675.95 673.13C694.315 691.265 696.96 697.83 696.995 725.365C697.015 746.07 696.65 748.115 691.25 757.56C683.365 771.33 669.18 786.73 659.205 792.335L650.925 796.985V653.895L656.77 656.925C659.985 658.59 668.615 665.885 675.95 673.13Z" fill="#1D1E23"/></svg>
